public/images/hashed/d24391102c70936bb08e087973564d75.svg

<?xml version="1.0" encoding="UTF-8"?>
<svg width="80px" height="80px" viewBox="0 0 80 80" version="1.1" xmlns="http://www.w3.org/2000/svg" xmlns:xlink="http://www.w3.org/1999/xlink">
    <!-- Generator: Sketch 64 (93537) - https://sketch.com -->
    <title>Icon-Architecture/64/Arch_Amazon-Redshiftct_64</title>
    <desc>Created with Sketch.</desc>
    <defs>
        <linearGradient x1="0%" y1="100%" x2="100%" y2="0%" id="linearGradient-1">
            <stop stop-color="#4D27A8" offset="0%"></stop>
            <stop stop-color="#A166FF" offset="100%"></stop>
        </linearGradient>
    </defs>
    <g id="Icon-Architecture/64/Arch_Amazon-Redshiftct_64" stroke="none" stroke-width="1" fill="none" fill-rule="evenodd">
        <g id="Icon-Architecture-BG/64/Analytics" fill="url(#linearGradient-1)">
            <rect id="Rectangle" x="0" y="0" width="80" height="80"></rect>
        </g>
        <path d="M50.8250355,35.1704885 C49.7652069,35.1704885 48.9041586,34.3110668 48.9041586,33.2542373 C48.9041586,32.1974078 49.7652069,31.336989 50.8250355,31.336989 C51.8838652,31.336989 52.7449135,32.1974078 52.7449135,33.2542373 C52.7449135,34.3110668 51.8838652,35.1704885 50.8250355,35.1704885 M45.9594133,46.8245264 C44.9005836,46.8245264 44.0395353,45.9651047 44.0395353,44.9082752 C44.0395353,43.8514457 44.9005836,42.9920239 45.9594133,42.9920239 C47.018243,42.9920239 47.8802902,43.8514457 47.8802902,44.9082752 C47.8802902,45.9651047 47.018243,46.8245264 45.9594133,46.8245264 M34.2823195,44.8823529 C33.2244887,44.8823529 32.3634404,44.0229312 32.3634404,42.9661017 C32.3634404,41.9092722 33.2244887,41.0488534 34.2823195,41.0488534 C35.3421482,41.0488534 36.2031965,41.9092722 36.2031965,42.9661017 C36.2031965,44.0229312 35.3421482,44.8823529 34.2823195,44.8823529 M29.4176962,55.5653041 C28.3598654,55.5653041 27.4978182,54.7058824 27.4978182,53.6490528 C27.4978182,52.5922233 28.3598654,51.7328016 29.4176962,51.7328016 C30.4775248,51.7328016 31.3385732,52.5922233 31.3385732,53.6490528 C31.3385732,54.7058824 30.4775248,55.5653041 29.4176962,55.5653041 M50.8250355,29.3429711 C48.6644235,29.3429711 46.9063666,31.0977069 46.9063666,33.2542373 C46.9063666,34.5762712 47.5706325,35.7417747 48.5805163,36.4506481 L46.7525367,41.0787637 C46.4958204,41.0259222 46.2301141,40.998006 45.9594133,40.998006 C44.2413122,40.998006 42.793912,42.114656 42.2674938,43.6550349 L38.1770149,42.7268195 C38.0501551,40.6839482 36.3620209,39.0548355 34.2823195,39.0548355 C32.1227065,39.0548355 30.3656485,40.8095713 30.3656485,42.9661017 C30.3656485,43.9740778 30.7592135,44.885344 31.3895168,45.5792622 L29.6044898,49.7577268 C29.5405604,49.7537388 29.4816256,49.7387836 29.4176962,49.7387836 C27.2580832,49.7387836 25.5000263,51.4925224 25.5000263,53.6490528 C25.5000263,55.8045862 27.2580832,57.559322 29.4176962,57.559322 C31.5783082,57.559322 33.3363651,55.8045862 33.3363651,53.6490528 C33.3363651,52.2652044 32.6091688,51.0548355 31.5193733,50.3589232 L33.0946322,46.6729811 C33.4722149,46.7936191 33.8657799,46.8763709 34.2823195,46.8763709 C35.823616,46.8763709 37.1471531,45.9760718 37.7854477,44.6829511 L42.1186583,45.666002 C42.4732664,47.4606181 44.0595132,48.8185444 45.9594133,48.8185444 C48.1200252,48.8185444 49.8780821,47.0648056 49.8780821,44.9082752 C49.8780821,43.7427717 49.3536617,42.7068794 48.5405604,41.9890329 L50.4614374,37.1276171 C50.5833027,37.1395813 50.7001735,37.1645065 50.8250355,37.1645065 C52.9846485,37.1645065 54.7427054,35.4097707 54.7427054,33.2542373 C54.7427054,31.0977069 52.9846485,29.3429711 50.8250355,29.3429711 M40,66.0059821 C30.2687556,66.0059821 22.9977919,63.0847458 22.9977919,60.4725823 L22.9977919,23.1515454 C26.3081331,25.8414756 33.3153883,27.2632104 40.0209768,27.2632104 C46.6965985,27.2632104 53.6738868,25.8534397 57.0022081,23.1864407 L57.0022081,60.4725823 C57.0022081,63.0847458 49.7302455,66.0059821 40,66.0059821 M40.0209768,13.9940179 C50.0279165,13.9940179 57.0022081,16.9651047 57.0022081,19.6321037 C57.0022081,22.2981057 50.0279165,25.2691924 40.0209768,25.2691924 C30.0130382,25.2691924 23.0397455,22.2981057 23.0397455,19.6321037 C23.0397455,16.9651047 30.0130382,13.9940179 40.0209768,13.9940179 M59,19.6321037 C59,14.6749751 49.2218075,12 40.0209768,12 C30.8201462,12 21.0419536,14.6749751 21.0419536,19.6321037 C21.0419536,19.6400798 21.0439514,19.6490528 21.0439514,19.6570289 L21,19.6570289 L21,60.4725823 C21,65.3619143 30.7891804,68 40,68 C49.2108196,68 59,65.3619143 59,60.4725823 L59,19.6570289 L58.9980022,19.6570289 C58.9980022,19.6490528 59,19.6400798 59,19.6321037" id="Amazon-Redshift_Icon_64_Squid" fill="#FFFFFF"></path>
    </g>
</svg>

<svg xmlns="http://www.w3.org/2000/svg" width="80" height="80"><defs><linearGradient id="a" x1="0%" x2="100%" y1="100%" y2="0%"><stop offset="0%" stop-color="#4D27A8"/><stop offset="100%" stop-color="#A166FF"/></linearGradient></defs><g fill="none" fill-rule="evenodd"><path fill="url(#a)" d="M0 0h80v80H0z"/><path fill="#FFF" d="M50.825 35.17a1.92 1.92 0 0 1-1.92-1.916 1.921 1.921 0 0 1 3.84 0 1.92 1.92 0 0 1-1.92 1.916m-4.866 11.655a1.92 1.92 0 0 1-1.92-1.917 1.92 1.92 0 0 1 3.841 0 1.92 1.92 0 0 1-1.92 1.917m-11.678-1.943a1.92 1.92 0 0 1-1.919-1.916 1.92 1.92 0 0 1 3.84 0 1.92 1.92 0 0 1-1.92 1.916m-4.865 10.683a1.92 1.92 0 0 1-1.92-1.916 1.92 1.92 0 0 1 3.84 0 1.92 1.92 0 0 1-1.92 1.916m21.407-26.222a3.92 3.92 0 0 0-3.919 3.911c0 1.322.665 2.488 1.675 3.197l-1.828 4.628a3.934 3.934 0 0 0-.794-.081c-1.718 0-3.165 1.117-3.692 2.657l-4.09-.928a3.91 3.91 0 0 0-3.895-3.672 3.919 3.919 0 0 0-3.916 3.911c0 1.008.393 1.92 1.024 2.613l-1.786 4.179c-.063-.004-.122-.02-.186-.02A3.919 3.919 0 0 0 25.5 53.65a3.92 3.92 0 0 0 7.836 0 3.9 3.9 0 0 0-1.817-3.29l1.576-3.686c.377.12.77.203 1.187.203a3.91 3.91 0 0 0 3.503-2.193l4.334.983a3.919 3.919 0 0 0 7.76-.758 3.886 3.886 0 0 0-1.338-2.919l1.92-4.861c.122.012.24.037.364.037a3.92 3.92 0 0 0 3.918-3.91 3.92 3.92 0 0 0-3.918-3.912M40 66.006c-9.731 0-17.002-2.921-17.002-5.533V23.152c3.31 2.69 10.317 4.111 17.023 4.111 6.676 0 13.653-1.41 16.981-4.077v37.287c0 2.612-7.272 5.533-17.002 5.533m.021-52.012c10.007 0 16.981 2.971 16.981 5.638 0 2.666-6.974 5.637-16.981 5.637-10.008 0-16.981-2.97-16.981-5.637 0-2.667 6.973-5.638 16.981-5.638M59 19.632C59 14.675 49.222 12 40.021 12c-9.2 0-18.979 2.675-18.979 7.632l.002.025H21v40.816C21 65.362 30.79 68 40 68s19-2.638 19-7.527V19.657h-.002l.002-.025"/></g></svg>
